src/app/img/ui/tool-zoom-in.svg

<?xml version="1.0" encoding="UTF-8"?>
<svg version="1.1" viewBox="0 0 85.333 85.333" xmlns="http://www.w3.org/2000/svg">
<path d="m42.621 1.2832c-22.832 0-41.428 18.595-41.428 41.428 0 22.832 18.595 41.43 41.428 41.43s41.43-18.597 41.43-41.43c0-22.832-18.597-41.428-41.43-41.428zm0 8.0996c18.455 0 33.328 14.873 33.328 33.328 0 18.455-14.873 33.33-33.328 33.33s-33.328-14.875-33.328-33.33c-1e-7 -18.455 14.873-33.328 33.328-33.328zm-3.0723 11.836a2.6003 2.6003 0 0 0-2.6016 2.5996v13.176h-13.174a2.6003 2.6003 0 0 0-2.5996 2.5996v4.6992a2.6003 2.6003 0 0 0 2.5996 2.6016h13.174v13.174a2.6003 2.6003 0 0 0 2.6016 2.5996h4.6992a2.6003 2.6003 0 0 0 2.5996-2.5996v-13.174h13.176a2.6003 2.6003 0 0 0 2.5996-2.6016v-4.6992a2.6003 2.6003 0 0 0-2.5996-2.5996h-13.176v-13.176a2.6003 2.6003 0 0 0-2.5996-2.5996h-4.6992z" fill="#4f4f4f"/>
</svg>

<svg viewBox="0 0 85.33 85.33" xmlns="http://www.w3.org/2000/svg"><path d="M42.62 1.28A41.49 41.49 0 0 0 1.2 42.71c0 22.83 18.6 41.43 41.43 41.43s41.43-18.6 41.43-41.43A41.5 41.5 0 0 0 42.62 1.28zm0 8.1a33.27 33.27 0 0 1 33.33 33.33c0 18.46-14.87 33.33-33.33 33.33S9.3 61.17 9.3 42.71A33.27 33.27 0 0 1 42.62 9.38zm-3.07 11.84a2.6 2.6 0 0 0-2.6 2.6v13.17H23.77a2.6 2.6 0 0 0-2.6 2.6v4.7a2.6 2.6 0 0 0 2.6 2.6h13.18v13.18a2.6 2.6 0 0 0 2.6 2.6h4.7a2.6 2.6 0 0 0 2.6-2.6V46.89h13.17a2.6 2.6 0 0 0 2.6-2.6v-4.7a2.6 2.6 0 0 0-2.6-2.6H46.85V23.82a2.6 2.6 0 0 0-2.6-2.6h-4.7z" fill="#4f4f4f"/></svg>
